packages/core/src/svgs/tidal.svg

<svg width="24" height="24" viewBox="0 0 24 24" fill="none" xmlns="http://www.w3.org/2000/svg">
<g clip-path="url(#clip0_31_19688)">
<path d="M0 0H24V24H0V0Z" fill="#F0F3FA"/>
<path d="M18.4284 8.09993C17.7807 8.16513 17.1266 8.08006 16.517 7.85136L16.0027 7.6585C14.665 7.15875 13.1919 7.15875 11.8541 7.6585L11.3399 7.85136C10.3836 8.20888 9.33039 8.20888 8.37415 7.85136L7.85986 7.6585C7.12867 7.38633 6.35096 7.26108 5.57129 7.28993V9.02565C6.14922 8.99733 6.72681 9.08776 7.26843 9.29136L7.78272 9.48422C9.12042 9.98397 10.5936 9.98397 11.9313 9.48422L12.4456 9.29136C13.4018 8.93384 14.455 8.93384 15.4113 9.29136L15.9256 9.48422C16.7313 9.78422 17.5841 9.90422 18.4284 9.83993V8.09993ZM5.57129 14.5714H18.4284V16.2856H5.57129V14.5714ZM16.517 11.2799C17.1341 11.5114 17.7856 11.5928 18.4284 11.5285V13.2685C17.5841 13.3328 16.7313 13.2128 15.9256 12.9128L15.4113 12.7199C14.455 12.3624 13.4018 12.3624 12.4456 12.7199L11.9313 12.9128C10.5936 13.4125 9.12042 13.4125 7.78272 12.9128L7.26843 12.7199C6.72681 12.5163 6.14922 12.4259 5.57129 12.4542V10.7185C6.34272 10.6885 7.12272 10.8128 7.85986 11.0871L8.37415 11.2799C9.32986 11.6399 10.3841 11.6399 11.3399 11.2799L11.8541 11.0871C13.1919 10.5873 14.665 10.5873 16.0027 11.0871L16.517 11.2799Z" fill="#002D95"/>
</g>
<defs>
<clipPath id="clip0_31_19688">
<rect width="24" height="24" fill="white"/>
</clipPath>
</defs>
</svg>

<svg xmlns="http://www.w3.org/2000/svg" width="24" height="24" fill="none" viewBox="0 0 24 24"><g clip-path="url(#a)"><path fill="#F0F3FA" d="M0 0h24v24H0z"/><path fill="#002D95" d="M18.428 8.1a4.2 4.2 0 0 1-1.911-.249l-.514-.192c-1.338-.5-2.811-.5-4.149 0l-.514.192a4.23 4.23 0 0 1-2.966 0L7.86 7.66a5.9 5.9 0 0 0-2.289-.37v1.737a4.2 4.2 0 0 1 1.697.265l.515.193c1.337.5 2.81.5 4.148 0l.515-.193a4.23 4.23 0 0 1 2.965 0l.515.193c.805.3 1.658.42 2.502.356zM5.571 14.57h12.857v1.715H5.571zm10.946-3.291a4.2 4.2 0 0 0 1.911.248v1.74a5.9 5.9 0 0 1-2.502-.355l-.515-.193a4.23 4.23 0 0 0-2.965 0l-.515.193c-1.337.5-2.81.5-4.148 0l-.515-.193a4.2 4.2 0 0 0-1.697-.266V10.72a5.9 5.9 0 0 1 2.289.368l.514.193c.956.36 2.01.36 2.966 0l.514-.193c1.338-.5 2.811-.5 4.149 0z"/></g><defs><clipPath id="a"><path fill="#fff" d="M0 0h24v24H0z"/></clipPath></defs></svg>
